X: 611
T: The New Rigged Ship
B: good tune book
B: tunes
M:4/4
R: reel
Q: 1/4=100
K:Adorian
V:1 
eg|:a3b ageg|agab agef|g3e fgag|1 f2d2d2eg:|2 f2d2d2ed:|
 |:^cecA B2 ed|^cecA E2 ed|^cecA B2 ed|1 ^c2A2A2ed:|2 ^c2A2A2AB:|
 |:cdec BcdB|ABAF GFED|cdec BcdB|1 c2A2A2AB:|2 c2A2A4:|
% abcbook-tune_id 63dce6c13cf1235170dd1af9
% abcbook-tune_composer_id 
% abcbook-link-0 https://www.youtube.com/watch?v=cwCoX_1MC2c
% abcbook-link-start-at-0 104
% abcbook-boost 11
% abcbook-difficulty 0
% abcbook-tags good tune book,steve ryan
% abcbook-tablature 
% abcbook-transpose 
% abcbook-tuning 
% abcbook-lastupdated 1675947090067
% abcbook-soundfonts 
% abcbook-repeats 1


